client/icons/clipboard.svg

<svg xmlns="http://www.w3.org/2000/svg" width="8" height="8" viewBox="0 0 8 8">
  <path d="M3.5 0c-.28 0-.5.22-.5.5v.5h-.75c-.14 0-.25.11-.25.25v.75h3v-.75c0-.14-.11-.25-.25-.25h-.75v-.5c0-.28-.22-.5-.5-.5zm-3.25 1c-.14 0-.25.11-.25.25v6.5c0 .14.11.25.25.25h6.5c.14 0 .25-.11.25-.25v-6.5c0-.14-.11-.25-.25-.25h-.75v2h-5v-2h-.75z" />
</svg>

<svg xmlns="http://www.w3.org/2000/svg" width="8" height="8" viewBox="0 0 8 8">
  <path d="M3.5 0c-.28 0-.5.22-.5.5V1h-.75c-.14 0-.25.11-.25.25V2h3v-.75C5 1.11 4.89 1 4.75 1H4V.5c0-.28-.22-.5-.5-.5zM.25 1C.11 1 0 1.11 0 1.25v6.5c0 .14.11.25.25.25h6.5c.14 0 .25-.11.25-.25v-6.5C7 1.11 6.89 1 6.75 1H6v6H1V1H.25z"/>
</svg>
